X:1
T:Title
%%score { ( 1 4 ) | ( 2 3 ) }
L:1/8
Q:1/4=100
M:4/4
K:Ab
V:1 treble nm="Grand Piano"
V:4 treble 
V:2 bass 
V:3 bass 
V:1
 [Ec]3 [EG] [DB]ACF | E-[A,E-][B,E-][DE-] [CE]4 | G3 F z GBd | c8 | [Ec]3 [EG] [DB]ACF | E8 | %6
w: H.~A.~Henry * * * * *||||||
 G3 F EdcB | [CEA]6 z2 | A-[FA-][FA-][FA] d2- [A,Fd]2 | z CCC [Ec]4 | e3 c cBAc | B6 z2 | %12
w: ||||||
 [Ec]3 [EG] [DB]ACF | E8 | G3 F EdcB | [CEA]6 z2 |] %16
w: ||||
V:2
 [A,,A,]4 z CA,D | A,,C,[E,G,][E,B,] [A,,A,]4 | B,4 .G,2 z2 | [A,E]A,[E,A,][C,A,] [A,,A,]4 | %4
 [A,,A,]4 z CA,D | A,,[C,G,][E,G,][E,B,] [A,,A,]4 | [E,B,D]3 [E,A,D] [E,G,D][E,G,E][E,A,E][E,DE] | %7
 A,,6 z2 | [D,D][D,D][D,D][D,D] A,-[E,A,]F,G, | [A,C]A,[E,A,][C,A,] [A,,A,]4 | %10
 [A,CE]3 [A,E] [F,A,=D][F,A,D][F,B,D][B,,A,C] | [E,G,E]2 [F,A,]2 [E,G,]2 =D2 | [A,,A,]4 z CA,D | %13
 A,,C,[E,G,][E,B,] [A,,A,]4 | [E,B,D]3 [E,A,D] [E,G,D][E,G,E][E,A,E][E,DE] | A,,6 z2 |] %16
V:3
 z4 [A,,E,]4 | x8 | [E,E]3- [E,A,E] E,-[E,-B,][E,-D][E,G,] | x8 | z4 [A,,E,]4 | x8 | x8 | x8 | %8
 z4 .D,2 z2 | x8 | x8 | x8 | z4 [A,,E,]4 | x8 | x8 | x8 |] %16
V:4
 x8 | .[A,C]2 z2 z4 | z4 E4 | z EEE E4 | x8 | [A,C]A,B,D C4 | x8 | x8 | .F2 z2 F2 z2 | E4 z4 | x8 | %11
 z2 =D2 _D2 _c2 | x8 | [A,C]A,B,D C4 | x8 | x8 |] %16

